X:26
T:Coming Through the Raye
S:Petrie's Third Collection of Strathspey Reels and Country Dances &c.
Z:Steve Wyrick <sjwyrick'at'gmail'dot'com>, 7/30/05
N:Petrie's Third Collection, page 11
L:1/8
M:C
R:Strathspey
K:Eb
B,|[G,E]<[G,E][G,E]>G TF>EF<G|[G,E]<[G,E][G,E]>G [G3B3] [Ge]|[G,E]<[G,E][G,E]>G F>EF>G|E<CTC>B|[G,3E3]B,|[G,E]<[G,E][G,E]>G TF>EF<G|
[G,E]<[G,E][G,E]>G [G3B3] [Ge]|[G,E]<[G,E][G,E]>G TF>EF>G|E<CCB, [G,3E3]||c|B<GG<E G<FF<G|B<GG<E [G3B3] e|
(c/B/)(A/G/) (A/G/)(F/E/) F>EF<G|E<CC<B, [G,3E3] c|B<GG<E G<FF<G|B<GG<E [G3B3] [Ge]|(c/B/)(A/G/) (A/G/)(F/E/) F>EF<G|E<CC>B, [G,3E3]|]
